!!!COM: Gabriel Faure/
!!!CNT: Francais
!!!TXO: Francais
!!!OTL: Lydia
!!!OPS: Op. 4
!!!ONM: No. 2
!!!LYR: Leconte de Lisle
!!!ENC: Jacob Pegg
!!!YOR: Album of Twenty Songs (Vingt Me/lodies,) Volume I
!!!YOR: Edward B. Marks Music Corporation, RCA Building, Radio
!!!YOR: City, New York 20, N.Y.
!!!ODT: 1870/
!!NB: Vocal melody and text only encoded.
!!NB: First instance of melodic material only encoded.
**kern	**silbe
*clef G2	*
*k[f#]	*
*M4/4	*
*MM[Andante]	*
!!created: 8/20/03 16:45
!!proofed and posted: 8/21/03 19:34
!!edit time: 43 min.
=1	=1
2r	.
2r	.
=2	=2
1r	.
=3	=3
{8g	{Ly-
8a	-di-
2b	-a
8a	sur
8g	tes
=4	=4
8a	ro-
8b	-ses
2cc#	jou-
4a}	-es}
=5	=5
{8b	{Et
8cc#	sur
8dd	ton
8ee	col
4ff#	frais
8cc#	et
8ee	si
=6	=6
1dd}	blanc,}
=7	=7
4r	.
{2b	{Roule
4dd	e/-
=8	=8
8cc	-tin-
8b	-ce-
2a	-lant
8cc	L'or
8cc	flu-
=9	=9
(8b	-i-
8a)	|
[4g	-de
8g]	|
8a	que
8b	tu
8g	de/-
=10	=10
2b	-nou-
4a}	-es;}
4r	.
=11	=11
{4dd	{Le
8ee	jour
8ee	qui
4.ee	luit
8ff#	est
=12	=12
4.ff#	le
8gg	meil-
2dd}	-leur,}
=13	=13
{8ee	{Ou-
8dd	-bli-
4cc	-ons
8b	l'e/-
8a	-ter-
8cc	-nel-
8b	-le
=14	=14
2b	tom-
2a}	-be,}
=15	=15
{8g	{Lais-
8g	-se
8b	tes
8cc	bai-
4dd	-sers,
8dd	tes
8dd	bai-
=16	=16
(12dd	-sers
12ee)	|
(12dd	de
8dd)	|
8cc	co-
(12cc	-lom-
12dd	|
[12cc)	|
8cc]	|
8b}	-be}
=17	=17
{8a	{Chan-
8b	-ter
8cc	sur
8dd	ta
8ffn	le\-
8ee-	-vre en
4dd}	fleur,}
=18	=18
4r	.
{8g	{sur
8g	ta
4.b	le\vre
8a	en
=19	=19
2g}	fleur.}
2r	.
!! 20-24 like 3-6
=25	=25
{8dd	{Les
8cc#	de/-
2b	-li-
8b	-ces
8dd	comme
=26	=26
8ccn	un
8b	es-
2a}	-saim}
{4cc	{Sor-
=27	=27
8b	-tent
8a	de
4g	toi,
(8g	jeu-
8a)	|
8b	-ne
8g	de/-
=28	=28
2b	-es-
2a}	-se.}
!!29-37 (end) like 11-18
*-	*-
